icons-rebrand/svg/create-a-group-light.svg

<svg width="32" height="32" viewBox="0 0 32 32" xmlns="http://www.w3.org/2000/svg">
<path fill-rule="evenodd" clip-rule="evenodd" d="M2.5 8C2.5 5.51472 4.51472 3.5 7 3.5H25C27.4853 3.5 29.5 5.51472 29.5 8V18C29.5 20.4853 27.4853 22.5 25 22.5H7C4.51472 22.5 2.5 20.4853 2.5 18V8ZM7 4.5C5.067 4.5 3.5 6.067 3.5 8V18C3.5 19.933 5.067 21.5 7 21.5H25C26.933 21.5 28.5 19.933 28.5 18V8C28.5 6.067 26.933 4.5 25 4.5H7ZM11 10.0104C11 9.73429 11.2239 9.51044 11.5 9.51044L24.5 9.51044C24.7761 9.51044 25 9.7343 25 10.0104C25 10.2866 24.7761 10.5104 24.5 10.5104L11.5 10.5104C11.2239 10.5104 11 10.2866 11 10.0104ZM11.5 15.5104C11.2239 15.5104 11 15.7343 11 16.0104C11 16.2866 11.2239 16.5104 11.5 16.5104L24.5 16.5104C24.7761 16.5104 25 16.2866 25 16.0104C25 15.7343 24.7761 15.5104 24.5 15.5104L11.5 15.5104ZM11 27.0104C11 26.7343 11.2239 26.5104 11.5 26.5104L24.5 26.5104C24.7761 26.5104 25 26.7343 25 27.0104C25 27.2866 24.7761 27.5104 24.5 27.5104L11.5 27.5104C11.2239 27.5104 11 27.2866 11 27.0104ZM7.49985 11.0028C8.05097 11.0028 8.49775 10.556 8.49775 10.0049C8.49775 9.45374 8.05097 9.00696 7.49985 9.00696C6.94873 9.00696 6.50195 9.45374 6.50195 10.0049C6.50195 10.556 6.94873 11.0028 7.49985 11.0028ZM8.50101 16.0049C8.50101 16.5579 8.05274 17.0061 7.49977 17.0061C6.9468 17.0061 6.49854 16.5579 6.49854 16.0049C6.49854 15.4519 6.9468 15.0036 7.49977 15.0036C8.05274 15.0036 8.50101 15.4519 8.50101 16.0049ZM7.49987 28.0043C8.05181 28.0043 8.49925 27.5568 8.49925 27.0049C8.49925 26.4529 8.05181 26.0055 7.49987 26.0055C6.94793 26.0055 6.50049 26.4529 6.50049 27.0049C6.50049 27.5568 6.94793 28.0043 7.49987 28.0043Z" fill="black"/>
</svg>

<svg width="32" height="32" viewBox="0 0 32 32" xmlns="http://www.w3.org/2000/svg"><path d="M2.5 8A4.5 4.5 0 0 1 7 3.5h18A4.5 4.5 0 0 1 29.5 8v10a4.5 4.5 0 0 1-4.5 4.5H7A4.5 4.5 0 0 1 2.5 18V8ZM7 4.5A3.5 3.5 0 0 0 3.5 8v10A3.5 3.5 0 0 0 7 21.5h18a3.5 3.5 0 0 0 3.5-3.5V8A3.5 3.5 0 0 0 25 4.5H7Zm4 5.51a.5.5 0 0 1 .5-.5h13a.5.5 0 0 1 0 1h-13a.5.5 0 0 1-.5-.5Zm.5 5.5a.5.5 0 0 0 0 1h13a.5.5 0 1 0 0-1h-13Zm-.5 11.5a.5.5 0 0 1 .5-.5h13a.5.5 0 0 1 0 1h-13a.5.5 0 0 1-.5-.5ZM7.5 11.003a.998.998 0 1 0 0-1.996.998.998 0 0 0 0 1.996ZM8.5 16.005a1.001 1.001 0 1 1-2.002 0 1.001 1.001 0 0 1 2.002 0Zm-1.001 12a1 1 0 1 0 0-2 1 1 0 0 0 0 2Z"/></svg>
